packages/netlify-cms-ui-default/src/Icon/images/user.svg

<svg height="32" viewBox="0 0 32 32" width="32" xmlns="http://www.w3.org/2000/svg"><path d="m16.5 18c-3.025 0-5.5-2.6341463-5.5-5.8536585v-.292683c0-3.21951216 2.475-5.8536585 5.5-5.8536585s5.5 2.63414634 5.5 5.8536585v.292683c0 3.2195122-2.475 5.8536585-5.5 5.8536585zm-.5 11c-3.7384245 0-7.1916785-1.6889619-9.39075171-4.3351212-.9071177-1.0639197-.79716404-2.7007193.30237256-3.6009591.82465246-.6547198 1.84172382-1.0639197 2.96874884-1.0639197h12.64467101c.7421872 0 1.4293975.19096 2.0616311.4910399 1.4293976.7365598 1.8692122 2.5915993.8796293 3.873759-2.2265616 2.8098392-5.5904346 4.6352011-9.4663011 4.6352011z" fill="#1e2532"/></svg>

<svg xmlns="http://www.w3.org/2000/svg" xmlns:xlink="http://www.w3.org/1999/xlink" width="32" height="32" viewBox="0 0 32 32"><g fill="none" fill-rule="evenodd"><path fill="#1E2532" fill-rule="nonzero" d="M16.5,18 C13.475,18 11,15.3658537 11,12.1463415 L11,11.8536585 C11,8.63414634 13.475,6 16.5,6 C19.525,6 22,8.63414634 22,11.8536585 L22,12.1463415 C22,15.3658537 19.525,18 16.5,18 Z M16,29 C12.2615755,29 8.8083215,27.3110381 6.60924829,24.6648788 C5.70213059,23.6009591 5.81208425,21.9641595 6.91162085,21.0639197 C7.73627331,20.4091999 8.75334467,20 9.88036969,20 L22.5250407,20 C23.2672279,20 23.9544382,20.19096 24.5866718,20.4910399 C26.0160694,21.2275997 26.455884,23.0826392 25.4663011,24.3647989 C23.2397395,27.1746381 19.8758665,29 16,29 Z" transform="translate(-1381 -11.437) translate(1381 11.437)"/></g></svg>
